src/app/img/ui/tool-shape.svg

<?xml version="1.0" encoding="UTF-8" standalone="no"?>
<svg
   xmlns:dc="http://purl.org/dc/elements/1.1/"
   xmlns:cc="http://creativecommons.org/ns#"
   xmlns:rdf="http://www.w3.org/1999/02/22-rdf-syntax-ns#"
   xmlns:svg="http://www.w3.org/2000/svg"
   xmlns="http://www.w3.org/2000/svg"
   xmlns:sodipodi="http://sodipodi.sourceforge.net/DTD/sodipodi-0.dtd"
   xmlns:inkscape="http://www.inkscape.org/namespaces/inkscape"
   version="1.1"
   viewBox="0 0 64 64"
   id="svg4"
   sodipodi:docname="tool-shape.svg"
   inkscape:version="0.92.5 (2060ec1f9f, 2020-04-08)">
  <metadata
     id="metadata10">
    <rdf:RDF>
      <cc:Work
         rdf:about="">
        <dc:format>image/svg+xml</dc:format>
        <dc:type
           rdf:resource="http://purl.org/dc/dcmitype/StillImage" />
      </cc:Work>
    </rdf:RDF>
  </metadata>
  <defs
     id="defs8" />
  <sodipodi:namedview
     pagecolor="#ffffff"
     bordercolor="#666666"
     borderopacity="1"
     objecttolerance="10"
     gridtolerance="10"
     guidetolerance="10"
     inkscape:pageopacity="0"
     inkscape:pageshadow="2"
     inkscape:window-width="2560"
     inkscape:window-height="1377"
     id="namedview6"
     showgrid="false"
     inkscape:zoom="7.375"
     inkscape:cx="63.849298"
     inkscape:cy="31.091034"
     inkscape:window-x="1912"
     inkscape:window-y="-8"
     inkscape:window-maximized="1"
     inkscape:current-layer="svg4" />
  <path
     style="color:#000000;font-style:normal;font-variant:normal;font-weight:normal;font-stretch:normal;font-size:medium;line-height:normal;font-family:sans-serif;font-variant-ligatures:normal;font-variant-position:normal;font-variant-caps:normal;font-variant-numeric:normal;font-variant-alternates:normal;font-feature-settings:normal;text-indent:0;text-align:start;text-decoration:none;text-decoration-line:none;text-decoration-style:solid;text-decoration-color:#000000;letter-spacing:normal;word-spacing:normal;text-transform:none;writing-mode:lr-tb;direction:ltr;text-orientation:mixed;dominant-baseline:auto;baseline-shift:baseline;text-anchor:start;white-space:normal;shape-padding:0;clip-rule:nonzero;display:inline;overflow:visible;visibility:visible;opacity:1;isolation:auto;mix-blend-mode:normal;color-interpolation:sRGB;color-interpolation-filters:linearRGB;solid-color:#000000;solid-opacity:1;vector-effect:none;fill:#1c1c1c;fill-opacity:1;fill-rule:nonzero;stroke:none;stroke-width:4;stroke-linecap:butt;stroke-linejoin:miter;stroke-miterlimit:4;stroke-dasharray:none;stroke-dashoffset:0;stroke-opacity:1;paint-order:normal;color-rendering:auto;image-rendering:auto;shape-rendering:auto;text-rendering:auto;enable-background:accumulate"
     d="M 40.271484 7.2890625 C 31.246714 7.2890625 23.784211 14.166659 22.847656 22.949219 L 8.0332031 22.949219 L 8.0332031 24.949219 L 8.0332031 58 L 43.083984 58 L 43.083984 42.091797 C 51.406208 40.73724 57.796875 33.510339 57.796875 24.814453 C 57.796875 15.159117 49.92682 7.2890625 40.271484 7.2890625 z M 40.271484 11.289062 C 47.76506 11.289062 53.796875 17.320878 53.796875 24.814453 C 53.796875 32.308028 47.76506 38.339844 40.271484 38.339844 C 32.777909 38.339844 26.746094 32.308028 26.746094 24.814453 C 26.746094 17.320878 32.777909 11.289064 40.271484 11.289062 z M 12.033203 26.949219 L 22.888672 26.949219 C 23.901325 35.212636 30.694043 41.711033 39.083984 42.279297 L 39.083984 54 L 12.033203 54 L 12.033203 26.949219 z "
     id="rect837" />
</svg>

<svg xmlns="http://www.w3.org/2000/svg" viewBox="0 0 64 64"><path fill="#1c1c1c" d="M40.271 7.29c-9.024 0-16.487 6.877-17.423 15.66H8.033V58h35.051V42.092c8.322-1.355 14.713-8.582 14.713-17.278 0-9.655-7.87-17.525-17.526-17.525zm0 4a13.495 13.495 0 0 1 13.526 13.524A13.495 13.495 0 0 1 40.27 38.34a13.495 13.495 0 0 1-13.525-13.526A13.495 13.495 0 0 1 40.271 11.29zM12.033 26.95H22.89c1.012 8.263 7.805 14.761 16.195 15.33V54h-27.05V26.95z"/></svg>
